sharp/svg/image_aspect_ratio.svg

<svg xmlns="http://www.w3.org/2000/svg" width="24" height="24"><path fill="none" d="M0 0h24v24H0z"/><g fill="currentColor"><path d="M16 10h-2v2h2v-2zm0 4h-2v2h2v-2zm-8-4H6v2h2v-2zm4 0h-2v2h2v-2zm10-6H2v16h20V4zm-2 14H4V6h16v12z"/></g></svg>

<?xml version="1.0" encoding="utf-8"?>
<!-- Generator: Adobe Illustrator 19.1.0, SVG Export Plug-In . SVG Version: 6.00 Build 0)  -->
<svg version="1.1" xmlns="http://www.w3.org/2000/svg" xmlns:xlink="http://www.w3.org/1999/xlink" x="0px" y="0px" width="24px"
	 height="24px" viewBox="0 0 24 24" enable-background="new 0 0 24 24" xml:space="preserve">
<g id="Bounding_Boxes">
	<g id="ui_x5F_spec_x5F_header_copy_3">
	</g>
	<rect fill="none" width="24" height="24"/>
</g>
<g id="Sharp" fill="currentColor">
	<g id="ui_x5F_spec_x5F_header_copy_2">
	</g>
	<path d="M16,10h-2v2h2V10z M16,14h-2v2h2V14z M8,10H6v2h2V10z M12,10h-2v2h2V10z M22,4H2v16h20V4z M20,18H4V6h16V18z"/>
</g>
</svg>
